X: 34
T: Killavil Postman, The
D:Arcady - After the Ball
M: 4/4
L: 1/8
R: barndance
K: D
 FG |A2 d2 dedB | ABAF EDEF | D2 D4 E2 | F6 FG |
A2 d2 d3 B | ABAF EDEF | e2 e4 f2 | B6 _B2 |
A2 d2 dedB | ABAF EDEF | D2 D4 E2 | F6 A2 |
B2 B2 GF E2 | A2 A2 FEDB, | A,2 D4 E2 | D6 de ||
f2 f2 dc B2 | f2 f2 dc B2 | f2 f4 g2 | f6 cd |
e2 e2 cB A2 | e2 e2 cBA2 | e2 e4 f2 | B6 de |
f2 f2 dc B2 | f2 f2 dc B2 | f2 f4 g2 | f6 d2 |
fd f2  ec e2 | dB d2 c4 | cded cded | c2 (3BcB A2 |

